X:1
T:L'hoedown in France
M:C
L:1/8
Q:235
C:(c) Greg Anderson, 26 May 2000
R:Reel
H:A trip to the Pays Basque turned up some great local village band
H:music, but nothing resembling southern old-time music of the States.
H:Every country's south ought to have a little old-time music, so here's
H:one contribution
K:D
de dB BB AF|BF AF BF AF|de dB AB dB|DF B2 B4|
de dB BB AF|BF AF BF AF|fg fe de fd|AB d2 d4:|
|:fg fe df ff|bf af ba fe|fg fe de fd|AB d2 d4|
fg fe df ff|bf af ba fe|fg fe de dB|AB d2 d4:|
